X: 42234
T: Wayward Vicar, The
R: hornpipe
M: 4/4
K: Dminor
|:ag|"Dm"f.g "A7"e>^c "Dm"d2A>B|"F" c.AB>^c "Dm"d.cd>e|"Dm" f2f>a "Gm" g>fe>c|"A7" ^c>de>c A>GF>E|
"Dm" F2F>A "F" c2c>A|"Gm"G>^FG>_B d2d>=f|"Dm"a>gf>e "A7" g>fe.d|"Dm"A>d "A7"d>^c "Dm" d2:|
|:^cd|"A7"e>cA>e c>Ae>c|"Dm" f>dA>f d>Af>d|"C"g>ec>e "Dm" a>fd>f|"C" g>fe>d "A7"^c>dA>B|
"C7"c>_BG>B "Dm" A>FD>F|"A7" A^ce>c "Dm" d>d.f|"C7" c>_BG<_B "Dm"A>FD>F|"Dm" A>d "A7"d^c "Dm" d2:|

